assets/images/icon-bag.svg

<svg width="18" height="21" viewBox="0 0 18 21" fill="none" xmlns="http://www.w3.org/2000/svg">
<path fill-rule="evenodd" clip-rule="evenodd" d="M9.00002 0.950001C11.0344 0.950001 12.7039 2.61947 12.7039 4.65385L12.6539 5.33462L16.3119 5.38129L16.3576 6.06694L17.0884 19.2206L17.0842 20.05L0.865967 19.9971L0.911631 19.2208L1.64243 6.06639L1.738 5.33462L5.29617 5.38462V4.65385C5.29617 2.61947 6.96564 0.950001 9.00002 0.950001ZM9.00002 2.51154C7.81729 2.51154 6.85771 3.47112 6.85771 4.65385L6.80771 5.33462L11.1423 5.38462V4.65385C11.1423 3.47112 10.1827 2.51154 9.00002 2.51154ZM3.15531 6.89615L2.46877 18.4885L15.4813 18.5412L14.8918 6.89615L12.7039 6.84615L12.6539 9.08846L11.1423 9.03846L11.1923 6.89615L6.85771 6.84615L6.80771 9.08846L5.29617 9.03846L5.34617 6.89615H3.15531Z" fill="#9B0D12"/>
</svg>

<svg width="18" height="21" fill="none" xmlns="http://www.w3.org/2000/svg"><path fill-rule="evenodd" clip-rule="evenodd" d="M9 .95a3.718 3.718 0 0 1 3.704 3.704l-.05.68 3.658.047.046.686.73 13.154-.004.829-16.218-.053.046-.776.73-13.155.096-.731 3.558.05v-.731A3.718 3.718 0 0 1 9 .95zm0 1.562c-1.183 0-2.142.96-2.142 2.142l-.05.68 4.334.05v-.73c0-1.183-.96-2.142-2.142-2.142zM3.155 6.896L2.47 18.488l13.012.053-.59-11.645-2.187-.05-.05 2.242-1.512-.05.05-2.142-4.334-.05-.05 2.242-1.512-.05.05-2.142h-2.19z" fill="#9B0D12"/></svg>
